X:2259
T:Glen Cottage, The
O:england
R:polka
M:2/4
L:1/8
K:Ador
eA Bd|e/f/e/d/ Bd|eA BA|G>A Bd|eA Bd|e/f/e/d/ Bd|ea e/f/e/d/|BA A2:|
|:e2 ef/g/|ae fe|d2 de/f/|ge fd|e2 ef/g/|ae fe|ea e/f/e/d/|BA A2:|
"variations"
eA Bd|eA AB/d/|eA BA|G2 GB/d/|eA Bd|eA AB/d/|ea e/f/e/d/|BA A2:|
|:e3/2{a}e/ {d}eg|ae fe|d2 de/f/|ge f/e/d|e2 ef/g/|ae fd|ea e/f/e/d/|BA A2:|


